!!!COM: Palestrina, Giovanni Perluigi da
!!!OPR: Gabriel Archangelus
!!!OTL: Kyrie
**kern	**kern	**kern	**kern
*Ibass	*Itenor	*Icalto	*Icant
!Bassus	!Tenor	!Altus	!Cantus
*clefF4	*clefGv2	*clefG2	*clefG2
*k[b-]	*k[b-]	*k[b-]	*k[b-]
*D:aeo	*D:aeo	*D:aeo	*D:aeo
*M4/2	*M4/2	*M4/2	*M4/2
=1	=1	=1	=1
0d	0r	0r	0r
=2	=2	=2	=2
1G	0r	0r	0r
[1d	.	.	.
=3	=3	=3	=3
2d]	0r	0a	0r
2c#	.	.	.
1d	.	.	.
=4	=4	=4	=4
1B-	0r	1d	0r
2.G	.	[1g	.
4A	.	.	.
=5	=5	=5	=5
4B-	0r	2g]	0dd
4c	.	.	.
2d	.	2f#	.
1G	.	1g	.
=6	=6	=6	=6
2r	0r	1e-	1g
2c	.	.	.
2B-	.	2d	[1dd
2G	.	2g	.
=7	=7	=7	=7
2B-	0r	2g	2dd]
2A	.	2a	2cc#
[1G	.	2.b-	1dd
.	.	4a	.
=8	=8	=8	=8
1G]	0d	4g	1b-
.	.	4f	.
.	.	1g	.
1D	.	.	2a
.	.	2f	2dd
=9	=9	=9	=9
0r	1G	2b-	2dd
.	.	2g	2ee
.	[1d	4a	[1ff
.	.	4g	.
.	.	4f	.
.	.	4e	.
=10	=10	=10	=10
1r	2d]	2d	2ff]
.	2c#	2e	2ee
2r	1d	2f	2dd
2D	.	[2a	[2ff
=11	=11	=11	=11
2D	1B-	2a]	2ff]
2E	.	2g	4ee
.	.	.	4dd
2.F	1A	[1a	2cc
.	.	.	2a
4G	.	.	.
=12	=12	=12	=12
2A	2r	1a]	2cc
2D	2d	.	2dd
1G	2d	1r	1b-
.	2e	.	.
=13	=13	=13	=13
1.D	1.f	2r	1a
.	.	2d	.
.	.	2d	2r
2A	2e	2e	2a
=14	=14	=14	=14
1D	2.d	1.f	2a
.	.	.	2b
.	4c	.	.
1r	2A	.	2cc
.	2c	2e	[2a
=15	=15	=15	=15
2r	1B-	1d	2a]
1d	.	.	2g
.	1A	1e	1a
2c#	.	.	.
=16	=16	=16	=16
2.d	0r	2.f	2r
.	.	.	2dd
4c	.	4e	.
2B-	.	2d	2dd
2A	.	2c#	2ee
=17	=17	=17	=17
2D	2r	1d	1.ff
2d	2d	.	.
2B-	2d	1r	.
2c	2e	.	2ee
=18	=18	=18	=18
1d	1.f	2r	2.dd
.	.	2d	.
.	.	.	4cc
1r	.	2d	2a
.	2e	2e	2cc
=19	=19	=19	=19
0r	2.d	2.f	2dd
.	.	.	1ff
.	4c	4g	.
.	2A	2a	.
.	2c	[2g	[2ee
=20	=20	=20	=20
1r	1B-	4g]	4ee]
.	.	4f	4dd
.	.	2d	1dd
2r	2A	1e	.
2A	[2a	.	[2cc
=21	=21	=21	=21
2A	4a]	0r	2cc]
.	4g	.	.
2B-	1f	.	4b-
.	.	.	4a
[1c	.	.	[1g
.	4e	.	.
.	4d	.	.
=22	=22	=22	=22
2c]	2e	2r	1g]
2B-	1d	2d	.
2.A	.	2e	1a
.	2c#	2e	.
4G	.	.	.
=23	=23	=23	=23
2F	1d	2f	2r
2G	.	1d	2dd
1E	1G	.	2ee
.	.	2c#	2ee
=24	=24	=24	=24
1D	2r	1d	1.ff
.	2d	.	.
1r	2d	2B-	.
.	2e	2c	2ee
=25	=25	=25	=25
2r	1.f	2.d	2.dd
2D	.	.	.
.	.	4e	4cc
2D	.	2f	2a
2E	2e	2g	[2cc
=26	=26	=26	=26
2F	2.d	0f	2cc]
2D	.	.	2.b-
.	4c	.	.
1F	2A	.	.
.	.	.	4a
.	2c	.	[2a
=27	=27	=27	=27
0G	0B-	2r	2a]
.	.	2d	4g
.	.	.	4f
.	.	2d	1g
.	.	2e	.
=28	=28	=28	=28
1.D	2A	1.f	[0a
.	2d	.	.
.	2d	.	.
2C#	2e	2e	.
=29	=29	=29	=29
0D	2.f	2.d	0a]
.	4e	4e	.
.	1d	1f	.
=30	=30	=30	=30
[0A	[0c#	[0e	[0a
=31	=31	=31	=31
0A]	0c#]	0e]	0a]
=32	=32	=32	=32
0r	1d	0r	0r
.	2c	.	.
.	2A	.	.
=33	=33	=33	=33
1r	2c	0r	0r
.	2d	.	.
1A	1e	.	.
=34	=34	=34	=34
2F	1.f	0r	0r
2D	.	.	.
2F	.	.	.
2G	4e	.	.
.	4d	.	.
=35	=35	=35	=35
1A	1c	1a	0r
[1B-	1d	2f	.
.	.	2d	.
=36	=36	=36	=36
1B-]	2r	2f	1dd
.	2d	2g	.
[1A	2e	[1a	2cc
.	2f	.	2a
=37	=37	=37	=37
2A]	2e	1a]	2cc
2F	1d	.	2dd
2G	.	2r	1ee
2A	2c#	2a	.
=38	=38	=38	=38
1.D	1d	2f	1.ff
.	.	2d	.
.	1r	2f	.
2E	.	2g	4ee
.	.	.	4dd
=39	=39	=39	=39
2F	2r	1a	2cc
2D	2d	.	4ff
.	.	.	4ee
1G	2B-	[1b-	4dd
.	.	.	4cc
.	2G	.	[2dd
=40	=40	=40	=40
0r	2B-	2b-]	2dd]
.	2c	4a	4cc
.	.	4g	4b-
.	1d	2f	[1a
.	.	[2d	.
=41	=41	=41	=41
1A	1e	2d]	1a]
.	.	2c#	.
2F	[1f	1d	2r
2D	.	.	2a
=42	=42	=42	=42
2F	2f]	2r	2a
2G	4e	2g	2b
.	4d	.	.
1A	1c	2f	2cc
.	.	[2e	[2a
=43	=43	=43	=43
1B-	2r	4e]	2a]
.	.	4d	.
.	2d	1d	2g
2.A	2f	.	[1a
.	[2e	2c#	.
4G	.	.	.
=44	=44	=44	=44
2F	4e]	1d	1a]
.	4d	.	.
2D	1d	.	.
1E	.	2r	1r
.	2c#	2g	.
=45	=45	=45	=45
1D	2.d	2f	1r
.	.	2d	.
.	4c	.	.
1r	1B-	2f	1dd
.	.	2g	.
=46	=46	=46	=46
2r	2A	1a	2cc
2d	2f	.	2a
2c	2e	1r	2cc
2B-	[2d	.	2dd
=47	=47	=47	=47
1A	2d]	2r	1ee
.	2c#	2a	.
2r	1d	2f	2.ff
2d	.	2d	.
.	.	.	4ee
=48	=48	=48	=48
2B-	0r	2f	1.dd
2G	.	2g	.
2B-	.	2d	.
2c	.	[2g	2cc
=49	=49	=49	=49
2.d	1r	2g]	2b-
.	.	2f	1a
4c	.	.	.
1B-	2r	1d	.
.	2d	.	2g
=50	=50	=50	=50
1.A	2c	1e	4a
.	.	.	4b
.	2A	.	4cc
.	.	.	4dd
.	2c	2r	2ee
2D	[2d	2a	2ff
=51	=51	=51	=51
1D	4d]	2f	1dd
.	4e	.	.
.	1f	2d	.
1r	.	2f	1cc
.	2e	2g	.
=52	=52	=52	=52
1r	1d	2a	1ff
.	.	2b	.
2r	2c	2.cc	1ee
2A	2c	.	.
.	.	4b-	.
=53	=53	=53	=53
2F	2d	4a	0r
.	.	4g	.
2D	2.f	1a	.
2F	.	.	.
.	4e	.	.
2G	[2d	4g	.
.	.	4f	.
=54	=54	=54	=54
1A	2d]	2e	1r
.	2c#	1a	.
1B-	1d	.	2r
.	.	2g	2dd
=55	=55	=55	=55
2A	2r	[0a	2cc
2D	2d	.	2a
[1A	2c	.	2.cc
.	2A	.	.
.	.	.	4dd
=56	=56	=56	=56
2A]	2c	0a]	2ee
2D	1d	.	1ff
2d	.	.	.
2c#	2e	.	2ee
=57	=57	=57	=57
1d	0f	[0a	0dd
1D	.	.	.
=58	=58	=58	=58
[0A	[0e	1a_	[0cc#
.	.	1a_	.
=59	=59	=59	=59
0A]	0e]	0a]	0cc#]
=60	=60	=60	=60
0r	1e	1r	0r
.	2f	1a	.
.	[2d	.	.
=61	=61	=61	=61
0r	2d]	2b-	0r
.	2c#	1a	.
.	2d	.	.
.	2B-	2g	.
=62	=62	=62	=62
0r	2.A	2a	1r
.	.	2f	.
.	4B-	.	.
.	1c	2e	1ee
.	.	[2a	.
=63	=63	=63	=63
1r	1d	4a]	2ff
.	.	4g	.
.	.	2f	1dd
1A	1r	1e	.
.	.	.	2cc#
=64	=64	=64	=64
2B-	2r	1d	2dd
1G	1d	.	2b-
.	.	2r	1a
2F#	2d	2a	.
=65	=65	=65	=65
2G	2B-	2b-	2r
2E	2c	1g	2ee
1D	1d	.	2ff
.	.	2f	[2dd
=66	=66	=66	=66
0r	2G	2g	2dd]
.	2A	2e	2cc#
.	2.B-	2.d	2dd
.	.	.	2b-
.	4c	4e	.
=67	=67	=67	=67
0r	4d	4f	2.a
.	4e	4g	.
.	1f	1a	.
.	.	.	4b-
.	.	.	4cc
.	.	.	4dd
.	2c	2g	[2ee
=68	=68	=68	=68
1r	1d	2f	4ee]
.	.	.	4dd
.	.	2d	1dd
2r	1A	1e	.
2A	.	.	2cc#
=69	=69	=69	=69
2B-	2r	1d	1dd
1G	2d	.	.
.	2e	1r	2r
2F#	[2d	.	2a
=70	=70	=70	=70
2G	2d]	0r	2b-
2E	2c#	.	2g
2.D	2d	.	2.f
.	2B-	.	.
4E	.	.	4g
=71	=71	=71	=71
4F	2.A	0r	1a
4G	.	.	.
1A	.	.	.
.	4B-	.	.
.	4c	.	1r
.	4d	.	.
2G	[2e	.	.
=72	=72	=72	=72
2F	4e]	1a	1r
.	4d	.	.
2D	1d	.	.
2G	.	2b-	2r
2A	2c#	[2a	2ee
=73	=73	=73	=73
1D	1d	2a]	2ff
.	.	2f	1dd
2r	1r	2g	.
2A	.	2e	2cc#
=74	=74	=74	=74
2B-	0r	2.d	2dd
2G	.	.	2b-
.	.	4e	.
1d	.	4f	2.a
.	.	4e	.
.	.	4f	.
.	.	4g	4b-
=75	=75	=75	=75
1A	2r	0a	4cc
.	.	.	4dd
.	2e	.	4ee
.	.	.	4cc
1D	2f	.	4dd
.	.	.	4ee
.	[2d	.	[2ff
=76	=76	=76	=76
1A	2d]	2r	2ff]
.	2c#	2e	2.ee
1r	2d	2f	.
.	.	.	4dd
.	2B-	2d	[2dd
=77	=77	=77	=77
2r	2.A	1e	2dd]
1A	.	.	1cc
.	4B-	.	.
.	2c	1f	.
2B-	[2d	.	[2b-
=78	=78	=78	=78
2G	2d]	2g	2b-]
2A	2c#	2.f	1a
1B-	1d	.	.
.	.	4e	.
.	.	[2d	2g
=79	=79	=79	=79
1A	2r	2d]	1a
.	2e	2c#	.
1r	2f	1d	2r
.	[2d	.	2a
=80	=80	=80	=80
2r	2d]	2G	2b-
2e	2c#	2A	1a
2f	2d	1r	.
[2d	2B-	.	2g
=81	=81	=81	=81
2d]	2A	2r	1a
2c#	1a	2e	.
2d	.	2f	1r
2B-	2g	[2d	.
=82	=82	=82	=82
1A	2f	2d]	1a
.	2e	2c#	.
2.G	1g	1d	2b-
.	.	.	[2g
4A	.	.	.
=83	=83	=83	=83
4B-	0d	2r	2g]
4c	.	.	.
2d	.	2a	2f
1G	.	2b-	2g
.	.	[2g	2b-
=84	=84	=84	=84
1d	2r	2g]	2.a
.	2d	2f#	.
.	.	.	4b
1c	2e	2g	1cc
.	[2c	2e	.
=85	=85	=85	=85
1G	2c]	2d	2r
.	2B	1g	2dd
1r	2c	.	2ee
.	2d	2f	[2dd
=86	=86	=86	=86
2r	1A	1e	2dd]
2A	.	.	2cc#
2B-	1d	2r	2dd
[2G	.	2d	2b-
=87	=87	=87	=87
2G]	1r	2e	1a
2F#	.	1d	.
2G	2r	.	1g
2E	2e	2c#	.
=88	=88	=88	=88
2.D	2f	2d	1r
.	1d	2B-	.
4E	.	.	.
4F	.	2A	2r
4G	.	.	.
2A	2c#	2a	2ee
=89	=89	=89	=89
2.D	2d	2.f	2ff
.	2B-	.	1dd
4E	.	4g	.
4F	2A	1a	.
4G	.	.	.
2A	2a	.	2cc#
=90	=90	=90	=90
2D	2.f	1a	2.dd
1d	.	.	.
.	4g	.	4ee
.	1a	2r	2ff
2c	.	2e	[2ee
=91	=91	=91	=91
1B-	1d	2f	4ee]
.	.	.	4dd
.	.	2g	1dd
2A	1e	2.a	.
2A	.	.	2cc#
.	.	4g	.
=92	=92	=92	=92
2B-	[0d	2f	2.dd
1G	.	1g	.
.	.	.	4cc
.	.	.	2b-
2F#	.	2a	2a
=93	=93	=93	=93
0G	0d]	2.b-	2.g
.	.	4a	4a
.	.	1g	1b-
=94	=94	=94	=94
[0D	[0d	[0f#	[0a
=95	=95	=95	=95
0D]	0d]	0f#]	0a]
==	==	==	==
*-	*-	*-	*-
!!!CDT: 1525/^1526/-1594/2/2
!!!OCY: Italia
!!!AGN: Mass (Parody)
!!!AST: renaissance, vocal
!!!ASW: Motet 1532 (Verdelot)
!!!PWK: Masses, Book I
!!!RNB: Cadence finals: A,F
!!!YOR: Le Opere Complete, v. 1, p. 93
!!!YOO: Rome, Italy: Fratelli Scalera
!!!END: 1992//
!!!EED: John Miller
!!!YEC: Copyright 2000, John Miller
!!!YEN: United States of America
!!!YEM: Rights to all derivative electronic formats reserved.
!!!YEM: Refer to licensing agreement for further details.
!!!YEM: This file must be accompanied by the licensing agreement.
!!!YEM: A copy of the licensing agreement may be found at http://www.music-cog.ohio-state.edu/HumdrumDatabases/Palestrina/license.txt
!!!EMD: converted to Humdrum by Bret Aarden
